icons/government-fill.svg

<svg xmlns="http://www.w3.org/2000/svg" viewBox="0 0 24 24">
    <g>
        <path fill="none" d="M0 0h24v24H0z"/>
        <path d="M2 19V8H1V6h3V4a1 1 0 0 1 1-1h14a1 1 0 0 1 1 1v2h3v2h-1v11h1v2H1v-2h1zm11 0v-7h-2v7h2zm-5 0v-7H6v7h2zm10 0v-7h-2v7h2zM6 5v1h12V5H6z"/>
    </g>
</svg>

<svg viewBox="0 0 24 24" fill="currentColor" xmlns="http://www.w3.org/2000/svg"><path d="M2 19V8H1V6H4V4C4 3.44772 4.44772 3 5 3H19C19.5523 3 20 3.44772 20 4V6H23V8H22V19H23V21H1V19H2ZM13 19V12H11V19H13ZM8 19V12H6V19H8ZM18 19V12H16V19H18ZM6 5V6H18V5H6Z"/></svg>
